!!!!SEGMENT: pl-kk--kk-i-423--002-005_golabek-jakub--missa-2da-benedictus.krn
!!!cenid: 17xx:2562
!!!COM: Gołąbek, Jakub
!!!COM-rismID: pe30008748
!!!CDT: 1739-1789/03/30
!!!CNT: Polish
!!!OPR: Missa 2da
!!!OTL: Benedictus
!!!OMV: 005
!!!PDT:
!!!AGN: Sacred; Mass
!!!YEC: Copyright 2022 Narodowy Instytut Fryderyka Chopina (https://polishscores.org)
!!!YEM: License CC-BY-4.0 (https://creativecommons.org/licenses/by/4.0)
!!!SMS-siglum: PL-Kk
!!!SMS-shelfmark: Kk.I.423
!!!SMS-variant:
!!!SMS-altvar:
!!!SMS-shelfwork: 002-005 M
!!!NIFC-rismSourceID: 1001147334
!!!NIFC-rismChildID: 1001147343
!!!NIFC-islandoraID:
!!!URL-pdf-islandora: https://repozytorium.nifc.pl/islandora/object/pl-kk%3A10566/datastream/PDF/view
!!!URL-scan: https://polish.musicsources.pl/pl/lokalizacje/galeria/rekopisy/6034-masses/3 @EN{Scan on Polish Music Sources Website} @PL{Skany w portalu Dziedzictwo Muzyki Polskiej w otwartym dostępie}
!!!IIIF:
!!!ONB-nifc: UWAGA: C – skan 4-6, A – 8-10, T – 12-14, B – 16-18. Części Mszy: Kyrie, Et in terra, Quoniam, Sanctus (+Pleni i Osanna), Benedictus, Agnus Dei.
!!!AIN: 1 alto 1 bass 1 canto 1 tenor
!!!key:
**kern	**text	**kern	**text	**text	**kern	**text	**kern
*part4	*part4	*part3	*part3	*part3	*part2	*part2	*part1
*staff4	*staff4	*staff3	*staff3	*staff3	*staff2	*staff2	*staff1
*I"Basso	*	*I"Tenore	*	*	*I"Alto	*	*I"Canto
*I'B.	*	*I'T.	*	*	*I'A.	*	*I'C.
*clefF4	*	*clefC4	*	*	*clefC3	*	*clefC1
*Ibass	*	*Itenor	*	*	*Ialto	*	*Icanto
*ICvox	*	*ICvox	*	*	*ICvox	*	*ICvox
*k[b-e-]	*	*k[b-e-]	*	*	*k[b-e-]	*	*k[b-e-]
*B-:	*	*B-:	*	*	*B-:	*	*B-:
*M2/2	*	*M2/2	*	*	*M2/2	*	*M2/2
*met(c|)	*	*met(c|)	*	*	*met(c|)	*	*met(c|)
=1	=1	=1	=1	=1	=1	=1	=1
!LO:TX:a:t=Lento	!	!	!	!	!	!	!LO:TX:a:t=Benedictus Tacet Osanna Da Capo
4BB-/	Be-	4d\	Be-	.	4f\	Be-	1ryy
4D/	.	8B-\L	.	.	8d\L	.	.
.	.	8c\J	.	.	8f\J	.	.
4E-/	.	8d\L	.	.	8f\L	.	.
.	.	8c\J	.	.	8e-\J	.	.
4F/	-ne-	8e-\L	-ne-	.	8c/L	-ne-	.
.	.	8c\J	.	.	8A/J	.	.
=2	=2	=2	=2	=2	=2	=2	=2
8BB-\L	-di-	4.d\	-di-	.	4.B-/	-di-	1ryy
8C\	.	.	.	.	.	.	.
8D\	.	.	.	.	.	.	.
8E-\J	.	16c\LL	.	.	16c/LL	.	.
.	.	16B-\JJ	.	.	16d/JJ	.	.
4F\	-ctus	4A\	-ctus	.	4c/	-ctus	.
4A\	qui	4c\	qui	.	4e-\	qui	.
=3	=3	=3	=3	=3	=3	=3	=3
4B-\	ve-	8B-\L	ve-	.	8d\L	ve-	1ryy
.	.	8d\	.	.	8f\	.	.
4E-\	.	8e-\	.	.	8g\	.	.
.	.	8c\J	.	.	8e-\J	.	.
*2\right	*	*	*	*	*	*	*
2F\	.	4B-\	.	.	4d\	.	.
.	.	4A\	.	.	4c\	.	.
=4	=4	=4	=4	=4	=4	=4	=4
.	.	8qqA/	.	.	8qqc/	.	.
*	*	*2\right	*	*	*2\right	*	*
2BB-/	-nit	2B-\	-nit	.	2d\	-nit	1ryy
4r	.	4r	.	.	4r	.	.
4BB-/	qui	8d\L	qui	.	8f\L	qui	.
.	.	8B-\J	.	.	8e-\J	.	.
=5	=5	=5	=5	=5	=5	=5	=5
8BB-\L	ve-	2B-\	ve-	.	2d\	ve-	1ryy
8C\	.	.	.	.	.	.	.
8D\	.	.	.	.	.	.	.
8E-\J	.	.	.	.	.	.	.
4F\	-nit	4A\	-nit	.	4c\	-nit	.
4F\	qui	8e-\L	qui	.	8g\L	qui	.
.	.	8c\J	.	.	8e-\J	.	.
!	!	!	!	!	!LO:LB:g=original	!	!
=6	=6	=6	=6	=6	=6	=6	=6
8A\L	ve-	2c\	ve-	.	2e-\	ve-	1ryy
8F\	.	.	.	.	.	.	.
8G\	.	.	.	.	.	.	.
8A\J	.	.	.	.	.	.	.
!LO:LB:g=original	!	!	!	!	!	!	!
4B-\	-nit	4B-\	-nit	.	4d\	-nit	.
4B-\	in	4B-\	in	.	4d\	in	.
!	!	!LO:PB:g=original	!	!	!	!	!
=7	=7	=7	=7	=7	=7	=7	=7
8B-\L	No-	8B-\L	no-	.	8d\L	No-	1ryy
8A\J	.	8c\J	.	.	8e-\J	.	.
8A\	-mi-	8c\	-mi-	.	8e-\	-mi-	.
8B-\	-ne	8d\	-ne	.	8f\	-ne	.
4E-\	Do-	8d\L	Do-	.	8f\L	Do-	.
.	.	8c\J	.	.	8e-\J	.	.
4En\	-mi-	8c\	.	.	8e-\	.	.
.	.	8B-\	-mi-	.	8d\	-mi-	.
!!linebreak:original
=8	=8	=8	=8	=8	=8	=8	=8
.	.	8qB-/	.	.	8qqd/	.	.
2F\	-ni	2A\	-ni	.	2c/	-ni	1ryy
4r	.	4r	.	.	4r	.	.
4F\	qui	8A\L	qui	.	8c\L	qui	.
.	.	8B-\J	.	.	8d\J	.	.
=9	=9	=9	=9	=9	=9	=9	=9
2F\	ve-	4c\	ve-	.	4e-\	ve-	1ryy
.	.	4B-\	.	.	4d\	.	.
4A\	.	8c\L	.	.	8e-\L	.	.
.	.	8e-\J	.	.	8g\	.	.
4F\	.	8d\L	.	.	8f\	.	.
.	.	8c\J	.	.	8e-\J	.	.
=10	=10	=10	=10	=10	=10	=10	=10
4B-\	.	4.B-\	.	.	4.d\	.	1ryy
4F\	.	.	.	.	.	.	.
.	.	8c\	-nit	.	8e-\	.	.
4BB-/	-nit	4d\	.	.	4f\	-nit	.
4G\	qui	8Bn\L	qui	.	8d\L	qui	.
!	!	!	!	!	!LO:TX:a:t=V.S.	!	!
.	.	8c\J	.	.	8en\J	.	.
!	!	!	!	!	!LO:PB:g=original	!	!
=11	=11	=11	=11	=11	=11	=11	=11
2G\	ve-	4d\	ve-	.	4f\	ve-	1ryy
.	.	4c\	.	.	4en\	.	.
4Bn\	.	8d\L	.	.	8f\L	.	.
.	.	8f\J	.	.	8a\	.	.
4G\	.	8e-\	.	.	8g\	.	.
!	!	!LO:TX:a:t=V.S.	!	!	!	!	!
.	.	8d\	.	.	8f\J	.	.
=12	=12	=12	=12	=12	=12	=12	=12
4c\	.	4.c\	.	.	4.e-\	.	1ryy
4G\	.	.	.	.	.	.	.
.	.	8d\	.	.	8f\	-nit	.
!LO:LB:g=original	!	!	!	!	!	!	!
4C/	-nit	4e-\	-nit	.	4g\	.	.
4C/	in	4e-\	in	.	4g\	in	.
=13	=13	=13	=13	=13	=13	=13	=13
4F\	No-	4c\	no-	.	4a\	no-	1ryy
.	.	.	.	.	8qcc/	.	.
8BB-/	-mi-	8d\L	-mi-	.	8b-\	-mi-	.
8D/	-ne	8B-\J	.	.	8g\	-ne	.
4.C/	Do-	4A\	-ne	.	4f\	Do-	.
.	.	.	.	.	8qa/	.	.
.	.	8B-\	Do-	.	8g\	.	.
8C/	-mi-	8G\	-mi-	.	8en\	-mi-	.
=14	=14	=14	=14	=14	=14	=14	=14
2F\	-ni	2A\	-ni	.	2f\	-ni	1ryy
2r	.	2r	.	.	2r	.	.
=15	=15	=15	=15	=15	=15	=15	=15
4BB-\	Be-	4d\	Be-	.	4f\	Be-	1ryy
4D\	.	8B-\L	ne-	.	8d\L	.	.
.	.	8d\J	.	.	8f\J	.	.
4E-\	-ne-	8d\L	.	.	8f\L	.	.
.	.	8c\J	.	.	8e-\J	.	.
4F\	.	8A\L	.	.	8c\L	-ne-	.
.	.	8c\J	.	.	8e-\J	.	.
!!linebreak:original
=16	=16	=16	=16	=16	=16	=16	=16
4.D/	-di-	4.B-\	-di-	.	4.d\	-di-	1ryy
8C/	-ctus	8c\	.	.	8e-\	.	.
4.BB-/	ve-	4d\	-ctus	.	4f\	-ctus	.
.	.	8r	.	.	8r	.	.
8BB-/	-nit	8d\	in	qui	8f\	qui	.
!	!	!	!	!	!LO:LB:g=original	!	!
=17	=17	=17	=17	=17	=17	=17	=17
2BB-/	qui	8d\L	no-	ve-	8f\L	ve-	1ryy
.	.	8c\	.	.	8e-\	.	.
.	.	8c\	-mi-	.	8e-\	.	.
.	.	8B-\J	-ne	.	8d\J	.	.
!	!	!LO:LB:g=original	!	!	!	!	!
4E-\	ve-	8B-\L	do-	.	8d\L	.	.
.	.	8e-\	.	.	8c\	.	.
4En\	.	8e-\	-mi-	.	8c\	.	.
.	.	8d\J	.	.	8B-\J	.	.
!LO:PB:g=original	!	!	!	!	!	!	!
=18	=18	=18	=18	=18	=18	=18	=18
2F\	-nit	2c\	-ni	-nit	2A/	-nit	1ryy
4F\	in	4A\	in	.	4c\	.	.
4A\	.	4c\	.	.	4e-\	in	.
=19	=19	=19	=19	=19	=19	=19	=19
4B-\	no-	8B-\L	no-	.	8d\L	no-	1ryy
.	.	8d\J	.	.	8f\J	.	.
.	.	.	.	.	8qa/	.	.
8E-\L	-mi-	8e-\	-mi-	.	8g\	-mi-	.
8E-\J	-ne	8c\	-ne	.	8e-\	-ne	.
4F\	Do-	4B-\	Do-	.	4d\	Do-	.
4FF/	-mi-	4A\	-mi-	.	4c\	-mi-	.
=20	=20	=20	=20	=20	=20	=20	=20
.	.	.	.	.	8qc/	.	.
2BB-/	-ni	2c\	-ni	.	2d\	-ni	1ryy
4FF/	in	4A\	in	.	4c\	in	.
4F\	.	8B-\L	.	.	8d\L	.	.
.	.	8c\J	.	.	8e-\J	.	.
=21	=21	=21	=21	=21	=21	=21	=21
4B-\	No-	12B-\L	no-	.	12d\L	no-	1ryy
.	.	12c\	.	.	12e-\	.	.
.	.	12d\J	.	.	12f\J	.	.
8E-\	-mi-	12e-\	-mi-	.	12g\	.	.
.	.	12d\	-ne	.	12f\	-mi-	.
8E-\	-ne	.	.	.	.	.	.
.	.	12c\	.	.	12e-\	-ne	.
4F\	Do-	4B-\	Do-	.	4d\	Do-	.
4FF/	-mi-	4A\	-mi-	.	4c\	-mi-	.
=22	=22	=22	=22	=22	=22	=22	=22
.	.	.	.	.	8qc/	.	.
2BB-/	-ni	2B-\	-ni	.	2d\	-ni	1ryy
!LO:TX:a:t=Osanna da Capo	!	!LO:TX:a:t=Osanna da Capo	!	!	!LO:TX:a:t=Osanna Da Capo	!	!
2r	.	2r	.	.	2r	.	.
==	==	==	==	==	==	==	==
*-	*-	*-	*-	*-	*-	*-	*-
!!!system-decoration: [(s1,s2,s3,s4)]
!!!ENC: Berenika Jozajtis
!!!END: 2024-02-14
!!!ENC: Leszek Kubiak
!!!END: 2024-08-04
